lib/svg/file-xls.svg

<svg width="32" height="32" viewBox="0 0 32 32" fill="none" xmlns="http://www.w3.org/2000/svg">
<path fill-rule="evenodd" clip-rule="evenodd" d="M16 6.00003H9.25C8.91132 6.00003 8.59091 6.13179 8.35813 6.3594C8.12611 6.58626 8 6.88911 8 7.20003V24.8C8 25.1109 8.12611 25.4138 8.35813 25.6407C8.59091 25.8683 8.91132 26 9.25 26H22.75C23.0887 26 23.4091 25.8683 23.6419 25.6407C23.8739 25.4138 24 25.1109 24 24.8V14H17C16.4477 14 16 13.5523 16 13V6.00003ZM26 13.0079V24.8C26 25.6561 25.652 26.4724 25.0401 27.0707C24.429 27.6682 23.6048 28 22.75 28H9.25C8.39521 28 7.57102 27.6682 6.95989 27.0707C6.348 26.4724 6 25.6561 6 24.8V7.20003C6 6.34399 6.348 5.52768 6.95989 4.92939C7.57102 4.33184 8.39521 4.00003 9.25 4.00003H16.9921C16.9972 3.99999 17.0023 3.99999 17.0074 4.00003H17.125C17.3863 4.00003 17.6373 4.10233 17.8241 4.28502L25.6991 11.985C25.8915 12.1732 26 12.4309 26 12.7V12.9926C26 12.9977 26 13.0028 26 13.0079ZM18 12V7.41424L22.5858 12H18Z" fill="#4364E8"/>
<rect x="8" y="17" width="16" height="9" fill="#4364E8"/>
<path d="M9.52734 25H8.12891L9.98047 22.0664L8.21875 19.2422H9.65625L10.6836 21.1133L11.7383 19.2422H13.1289L11.3672 22.0195L13.2383 25H11.7773L10.6836 23.0391L9.52734 25Z" fill="white"/>
<path d="M14.1853 19.2422H15.3884V23.9648H18.24V25H14.1853V19.2422Z" fill="white"/>
<path d="M20.187 23.2227C20.2235 23.4857 20.2951 23.6823 20.4019 23.8125C20.5972 24.0495 20.9318 24.168 21.4058 24.168C21.6896 24.168 21.9201 24.1367 22.0972 24.0742C22.4331 23.9544 22.6011 23.7318 22.6011 23.4062C22.6011 23.2161 22.5178 23.069 22.3511 22.9648C22.1844 22.8633 21.9227 22.7734 21.5659 22.6953L20.9566 22.5586C20.3576 22.4232 19.9435 22.276 19.7144 22.1172C19.3264 21.8516 19.1323 21.4362 19.1323 20.8711C19.1323 20.3555 19.3198 19.9271 19.6948 19.5859C20.0698 19.2448 20.6206 19.0742 21.3472 19.0742C21.954 19.0742 22.4709 19.2357 22.898 19.5586C23.3277 19.8789 23.5529 20.3451 23.5737 20.957H22.4175C22.3967 20.6107 22.2456 20.3646 21.9644 20.2188C21.7769 20.1224 21.5438 20.0742 21.2652 20.0742C20.9553 20.0742 20.7079 20.1367 20.523 20.2617C20.3381 20.3867 20.2456 20.5612 20.2456 20.7852C20.2456 20.9909 20.3368 21.1445 20.5191 21.2461C20.6362 21.3138 20.8862 21.3932 21.2691 21.4844L22.2612 21.7227C22.6961 21.8268 23.0243 21.9661 23.2456 22.1406C23.5894 22.4115 23.7612 22.8034 23.7612 23.3164C23.7612 23.8424 23.5594 24.2799 23.1558 24.6289C22.7547 24.9753 22.187 25.1484 21.4527 25.1484C20.7027 25.1484 20.1128 24.9779 19.6831 24.6367C19.2534 24.293 19.0386 23.8216 19.0386 23.2227H20.187Z" fill="white"/>
</svg>

<svg xmlns="http://www.w3.org/2000/svg" width="32" height="32" fill="none" viewBox="0 0 32 32">
  <g class="file / xls">
    <path  fill-rule="evenodd" d="M16 6H9.25c-.339 0-.66.132-.892.36-.232.226-.358.53-.358.84v17.6c0 .31.126.614.358.84.233.228.553.36.892.36h13.5c.339 0 .66-.132.892-.36.232-.226.358-.53.358-.84V14h-7a1 1 0 01-1-1V6zm10 7.008V24.8c0 .856-.348 1.672-.96 2.27a3.276 3.276 0 01-2.29.93H9.25a3.276 3.276 0 01-2.29-.93A3.175 3.175 0 016 24.8V7.2c0-.856.348-1.672.96-2.27A3.276 3.276 0 019.25 4h7.875a1 1 0 01.7.285l7.874 7.7A1 1 0 0126 12.7v.308zM18 12V7.414L22.586 12H18z" class="Union" clip-rule="evenodd"/>
    <path  d="M8 17h16v9H8z" class="Rectangle 65"/>
    <g class="XLS">
      <path  d="M9.527 25H8.13l1.851-2.934-1.761-2.824h1.437l1.028 1.871 1.054-1.87h1.39l-1.76 2.777 1.87 2.98h-1.46l-1.094-1.96L9.527 25zM14.185 19.242h1.203v4.723h2.852V25h-4.055v-5.758zM20.187 23.223c.037.263.108.46.215.59.195.236.53.355 1.004.355.284 0 .514-.031.691-.094.336-.12.504-.342.504-.668a.493.493 0 00-.25-.441c-.167-.102-.428-.192-.785-.27l-.61-.136c-.598-.136-1.012-.283-1.242-.442-.388-.265-.582-.68-.582-1.246 0-.515.188-.944.563-1.285.375-.341.926-.512 1.652-.512.607 0 1.124.162 1.551.485.43.32.655.786.676 1.398h-1.157c-.02-.346-.171-.592-.453-.738a1.52 1.52 0 00-.699-.145c-.31 0-.557.063-.742.188a.597.597 0 00-.277.523c0 .206.09.36.273.461.117.068.367.147.75.238l.992.239c.435.104.763.243.985.418.343.27.515.662.515 1.175 0 .526-.202.964-.605 1.313-.401.346-.969.52-1.703.52-.75 0-1.34-.171-1.77-.512-.43-.344-.644-.815-.644-1.414h1.148z"/>
    </g>
  </g>
</svg>
